Newaita-dark/actions/24/document-encrypted.svg

<?xml version="1.0" encoding="UTF-8"?>
<svg xmlns="http://www.w3.org/2000/svg" xmlns:xlink="http://www.w3.org/1999/xlink" width="24pt" height="24pt" viewBox="0 0 24 24" version="1.1">
<g id="surface1">
<path style=" stroke:none;fill-rule:nonzero;fill:rgb(14.901961%,65.098041%,60.392159%);fill-opacity:1;" d="M 11.90625 15.070312 C 11.082031 15.070312 10.417969 15.734375 10.417969 16.558594 C 10.417969 17.003906 10.609375 17.398438 10.914062 17.671875 L 10.914062 19.289062 C 10.914062 19.5625 11.136719 19.785156 11.410156 19.785156 L 12.402344 19.785156 C 12.679688 19.785156 12.898438 19.5625 12.898438 19.289062 L 12.898438 17.671875 C 13.203125 17.398438 13.394531 17.003906 13.394531 16.558594 C 13.394531 15.734375 12.730469 15.070312 11.90625 15.070312 Z M 11.90625 15.070312 "/>
<path style=" stroke:none;fill-rule:nonzero;fill:rgb(74.117649%,74.117649%,74.117649%);fill-opacity:1;" d="M 11.847656 1.179688 C 8.582031 1.179688 5.953125 3.835938 5.953125 7.132812 L 5.953125 12.09375 L 7.441406 12.09375 L 7.441406 6.636719 C 7.441406 4.4375 9.433594 2.667969 11.90625 2.667969 C 14.382812 2.667969 16.371094 4.4375 16.371094 6.636719 L 16.371094 12.09375 L 17.859375 12.09375 L 17.859375 7.132812 C 17.859375 3.835938 15.230469 1.179688 11.964844 1.179688 Z M 11.847656 1.179688 "/>
<path style=" stroke:none;fill-rule:nonzero;fill:rgb(74.117649%,74.117649%,74.117649%);fill-opacity:1;" d="M 4.464844 12.09375 C 3.640625 12.09375 2.976562 12.757812 2.976562 13.582031 L 2.976562 21.523438 C 2.976562 22.347656 3.640625 23.011719 4.464844 23.011719 L 19.347656 23.011719 C 20.175781 23.011719 20.839844 22.347656 20.839844 21.523438 L 20.839844 13.582031 C 20.839844 12.757812 20.175781 12.09375 19.347656 12.09375 Z M 4.960938 13.582031 L 18.851562 13.582031 C 19.128906 13.582031 19.347656 13.804688 19.347656 14.078125 L 19.347656 21.027344 C 19.347656 21.300781 19.128906 21.523438 18.851562 21.523438 L 4.960938 21.523438 C 4.6875 21.523438 4.464844 21.300781 4.464844 21.027344 L 4.464844 14.078125 C 4.464844 13.804688 4.6875 13.582031 4.960938 13.582031 Z M 4.960938 13.582031 "/>
</g>
</svg>

<svg xmlns="http://www.w3.org/2000/svg" width="32" height="32" viewBox="0 0 24 24"><path d="M11.906 15.07c-.824 0-1.488.664-1.488 1.489 0 .445.191.84.496 1.113v1.617c0 .273.223.496.496.496h.992a.494.494 0 0 0 .496-.496v-1.617c.305-.274.497-.668.497-1.113 0-.825-.665-1.489-1.489-1.489zm0 0" fill="#26a69a"/><path d="M11.848 1.18c-3.266 0-5.895 2.656-5.895 5.953v4.96h1.488V6.638c0-2.2 1.993-3.969 4.465-3.969 2.477 0 4.465 1.77 4.465 3.969v5.457h1.488V7.133c0-3.297-2.629-5.953-5.894-5.953zm0 0" fill="#bdbdbd"/><path d="M4.465 12.094c-.824 0-1.488.664-1.488 1.488v7.941c0 .825.664 1.489 1.488 1.489h14.883c.828 0 1.492-.664 1.492-1.489v-7.941c0-.824-.664-1.488-1.492-1.488zm.496 1.488h13.89c.278 0 .497.223.497.496v6.95a.494.494 0 0 1-.496.495H4.96a.497.497 0 0 1-.496-.496v-6.949c0-.273.223-.496.496-.496zm0 0" fill="#bdbdbd"/></svg>
